X:1
T:Rochester
T:Israel Holdroyd, 1722 A Major         Arranged  by Ananias Davisson, 1816
T:Issac Watts, 1719 (Psalm 34, Part 2)                              86. 86. (C. M.)                   
T:Transcribed from Kentucky Harmony, 1826.
T:No Copyright.  Transcribed from Suffolk Harmony, 1786.
Z:No Copyright.  Transcribed from Suffolk Harmony, 1786.
%%score [ 1 2 3 4 ]
L:1/8
Q:1/4=120
M:4/4
K:A
V:1 treble nm="Tr." snm="Tr."
V:2 treble nm="C." snm="C."
V:3 treble-8 nm="T." snm="T."
V:4 bass nm="B." snm="B."
V:1
 c4 | c2 B2 A4 | c4 d2 B2 | c8 | e4 d2 cB | A4 B4 | B8 | z4 B4 | A2 G2 A4 | c4 B2 A2 | G8 | %11
 A4 A2 G2 | A4 B4 | c8 |] %14
V:2
"_Come, children, learn to fear the Lord      And  that  your   days  be   long,             Let     not  a  false    or    spiteful   word    Be     found  up – on     your   tongue." E4 | %1
 F2 G2 A4 | E4 F2 E2 | E8 | E4 A2 G2 | A4 F4 | G8 | z4 E4 | F2 G2 A4 | E4 F2 G2 | E8 | E4 CD E2 | %12
 F4 E4 | E8 |] %14
V:3
 A4 | A2 B2 c4 | A4 B2 G2 | A8 | c4 d2 e2 | f4 d4 | e8 | z4 e4 | d2 c2 f4 | e4 d2 c2 | B8 | %11
 c4 A2 E2 | (d2 c2) B4 | A8 |] %14
V:4
"_______________________________________________________________________________________________________\nThis tune was composed by Israel Holdroyd as \nPsalm 34 \nin 1722, and called \nRochester\n from 1732. It has appeared, with a variety of \n  words and arrangements, in several hundred  tunebooks since 1722 (every two years over that time); and in America \n  since 1761. Notably, it appeared in \nKentucky Harmony \nin 1816, \nWyeth's Repository of Sacred Music\n in 1816, and Allen \n  Carden's \nMissouri Harmony\n in 1820.  It appeared in \nThe Sacred Harp\n (page 30) from 1844 to the present with Isaac Watts' \n  words \nCome let us join our cheerful songs\n, and \nSouthern Harmony\n (page 279) from 1847, with Isaac Watts' words, \n  There is a land of pure delight." A,4 | %1
 F,2 E,2 A,4 | A,4 D,2 E,2 | A,,8 | A,4 D,2 A,2 | F,4 B,4 | E,8 | z4 E,4 | F,2 E,2 D,4 | %9
 A,4 D,2 A,,2 | E,8 | E,4 F,2 E,2 | D,4 E,4 | A,,8 |] %14

